X:124
T: Bonny Dundee
N: O'Farrell's Pocket Companion v.2 (Sky ed. p.69)
N: "Scotch"
M: 6/4
L: 1/4
Q: 160
K: Am
A|EAA A>Bc|B>AG Bd>d|e>fe deg|e>dB A2 :|
G|GBd g>ab|B>AG Bdd|eaa aga|bag e2g|
d>e^f g>ab|B>AG B>dd|efe d>e g/a/|b/a/g/ e/d/B/ A2 ||
